icons/blood_pressure_2_fill.svg

<svg width="48" height="48" viewBox="0 0 48 48" fill="none" xmlns="http://www.w3.org/2000/svg">
<path fill-rule="evenodd" clip-rule="evenodd" d="M34.0635 22.7827C34.0361 21.1841 34.0067 19.4696 34.001 17.633C33.8782 17.5713 33.7399 17.4998 33.5893 17.4189C32.9958 17.1001 32.1986 16.6282 31.3954 16.0185C29.8522 14.847 28 12.9481 28 10.4483C28 8.22234 29.6842 6 32.1875 6C33.3501 6 34.2913 6.46363 35 7.15655C35.7087 6.46365 36.6499 6 37.8125 6C40.3161 6 42 8.22273 42 10.4483C42 12.8708 40.1385 14.7713 38.6115 15.9514C37.8116 16.5696 37.0174 17.0562 36.4262 17.3873C36.2699 17.4748 36.127 17.5519 36.001 17.6182C36.0067 19.3619 36.0349 21.0268 36.0617 22.6031C36.1203 26.0579 36.1718 29.0872 35.9621 31.5882C35.6445 35.3763 34.7048 38.4164 31.8974 40.0607C29.1355 41.6785 25.0557 42.2864 21.677 41.8754C19.9809 41.6691 18.362 41.1952 17.1377 40.3774C16.2458 39.7817 15.5395 38.9813 15.2072 37.9764C13.1297 37.8817 11.0643 37.5027 9.42952 36.8249C7.66523 36.0935 6 34.8246 6 32.8396V13.1221H6.00292C6.00098 13.0815 6 13.0408 6 13C6 10.2386 10.4772 8 16 8C21.5228 8 26 10.2386 26 13C26 13.0408 25.999 13.0815 25.9971 13.1221H26V19.0709C29.3923 19.5561 32 22.4735 32 26C32 29.5268 29.3918 32.4445 25.999 32.9293C25.9525 34.9442 24.3416 36.2197 22.5645 36.9429C21.0959 37.5406 19.2854 37.8713 17.4347 37.9691C17.6349 38.2373 17.9055 38.4851 18.2486 38.7143C19.1193 39.2959 20.3993 39.7053 21.9184 39.89C24.9701 40.2612 28.5863 39.6823 30.8866 38.335C32.7981 37.2154 33.6624 35.0795 33.9691 31.4211C34.1705 29.0185 34.1214 26.1586 34.0635 22.7827ZM23.9975 32.9287C23.9533 33.707 23.3243 34.4744 21.8105 35.0905C20.2859 35.711 18.179 36.0235 16.0114 35.9988C15.703 35.9953 15.3957 35.9849 15.0909 35.968V17.9796C15.3903 17.9931 15.6936 18 16 18C19.2712 18 22.1755 17.2147 24 16.0005V19.0709C20.6077 19.5561 18 22.4735 18 26C18 29.5256 20.6064 32.4424 23.9975 32.9287ZM24 13C24 13.2151 23.7737 13.9482 22.1766 14.7467C20.6992 15.4854 18.5183 16 16 16C13.4817 16 11.3008 15.4854 9.82336 14.7467C8.22632 13.9482 8 13.2151 8 13C8 12.7849 8.22632 12.0518 9.82336 11.2533C11.3008 10.5146 13.4817 10 16 10C18.5183 10 20.6992 10.5146 22.1766 11.2533C23.7737 12.0518 24 12.7849 24 13ZM23.5 26.5L25 21.5L26.5 26.5L25 28.5L23.5 26.5Z" fill="black"/>
</svg>

<svg
  xmlns="http://www.w3.org/2000/svg"
  width="24"
  height="24"
  viewBox="0 0 24 24"
  fill="none"
  stroke="currentColor"
  stroke-width="2"
  stroke-linecap="round"
  stroke-linejoin="round"
>
  <path
    fill-rule="evenodd"
    d="M34.064 22.783c-.028-1.599-.057-3.313-.063-5.15a16.926 16.926 0 0 1-2.606-1.614C29.852 14.846 28 12.949 28 10.449 28 8.221 29.684 6 32.188 6 33.35 6 34.29 6.464 35 7.157 35.709 6.464 36.65 6 37.813 6 40.316 6 42 8.223 42 10.448c0 2.423-1.861 4.323-3.389 5.503a18 18 0 0 1-2.61 1.667c.006 1.744.034 3.409.06 4.985.06 3.455.11 6.484-.099 8.985-.318 3.788-1.257 6.828-4.065 8.473-2.761 1.617-6.841 2.225-10.22 1.814-1.696-.206-3.315-.68-4.54-1.498-.891-.595-1.598-1.396-1.93-2.4-2.077-.095-4.143-.474-5.777-1.152-1.765-.732-3.43-2-3.43-3.985V13.122h.003L6 13c0-2.761 4.477-5 10-5s10 2.239 10 5q0 .061-.003.122H26v5.949a7.001 7.001 0 0 1-.001 13.858c-.046 2.015-1.657 3.29-3.434 4.014-1.47.598-3.28.928-5.13 1.026q.299.402.814.745c.87.582 2.15.991 3.67 1.176 3.051.371 6.667-.208 8.968-1.555 1.911-1.12 2.775-3.255 3.082-6.914.201-2.402.152-5.262.094-8.638M23.996 32.929c-.044.778-.673 1.545-2.186 2.161-1.525.621-3.632.933-5.8.909a21 21 0 0 1-.92-.031V17.98q.45.02.909.02c3.271 0 6.176-.785 8-2v3.07a7.001 7.001 0 0 0-.003 13.859M24 13c0 .215-.226.948-1.823 1.747C20.699 15.485 18.518 16 16 16s-4.7-.515-6.177-1.253C8.226 13.948 8 13.215 8 13s.226-.948 1.823-1.747C11.301 10.515 13.482 10 16 10s4.7.515 6.177 1.253C23.774 12.052 24 12.785 24 13m-.5 13.5 1.5-5 1.5 5-1.5 2z"
    clip-rule="evenodd"
  />
</svg>
